dist/images/mu-logo-large.svg

<svg id="2ef59fb6-576d-47ed-97af-739b0bc8ed9c" data-name="default" xmlns="http://www.w3.org/2000/svg" width="66" height="74" viewBox="0 0 66 74"><defs><style>.a0421430-18ff-4b5f-9033-44fcb384432d{fill:#fff;}.b74c552d-6d84-443e-a166-84d7de5ea892{fill:#f1b82d;}</style></defs><title>mu-logo-large</title><path d="M33,73.5c-12.9,0-22.162-2.308-27.543-6.861A12.89,12.89,0,0,1,.5,56.728V0.5H29.076L33,9.353,36.922,0.5H65.5V56.728C65.5,60.663,63.156,73.5,33,73.5Z"/><path class="a0421430-18ff-4b5f-9033-44fcb384432d" d="M65,1V56.728C65,60.444,62.922,73,33,73S1,60.444,1,56.728V1H28.751L33,10.588,37.247,1H65m1-1H36.6l-0.264.595L33,8.119,29.665,0.595,29.4,0H0V56.728A13.382,13.382,0,0,0,5.133,67.021C10.608,71.652,19.983,74,33,74s22.392-2.348,27.867-6.979A13.382,13.382,0,0,0,66,56.728V0h0Z"/><path class="b74c552d-6d84-443e-a166-84d7de5ea892" d="M42,51.816V46.487c0-1.078-.657-1.918-2-2.637V40H57v3.82c-1.344.718-2,1.558-2,2.638v4.758C54.833,54.958,56.058,64,33,64c-22.958,0-21.875-9.042-22-12.784V46.458c0-1.079-.655-1.919-2-2.638V40H26v3.85c-1.345.718-2,1.558-2,2.637v5.329C24.061,52.654,23.368,56,32.984,56S41.938,52.654,42,51.816Z"/><path class="b74c552d-6d84-443e-a166-84d7de5ea892" d="M32.984,23.567L40.9,9H57v4.036c-1.345.719-2,1.573-2,2.652V27c0,1.079.655,1.918,2,2.637V34H42V29.608c1.345-.719,2-1.558,2-2.638V18.354L34.833,34h-3.7L22,18.354V26.97c0,1.079.655,1.918,2,2.638V34H9V29.638c1.344-.719,2-1.558,2-2.637V15.687c0-1.079-.656-1.932-2-2.652V9H25.069l7.915,14.567"/></svg>

<?xml version="1.0" encoding="utf-8"?>
<!-- Generator: Adobe Illustrator 18.1.1, SVG Export Plug-In . SVG Version: 6.00 Build 0)  -->
<!DOCTYPE svg PUBLIC "-//W3C//DTD SVG 1.0//EN" "http://www.w3.org/TR/2001/REC-SVG-20010904/DTD/svg10.dtd">
<svg version="1.0" id="default" xmlns="http://www.w3.org/2000/svg" xmlns:xlink="http://www.w3.org/1999/xlink" x="0px" y="0px"
	 width="66px" height="74px" viewBox="0 0 66 74" enable-background="new 0 0 66 74" xml:space="preserve">
<g>
	<path d="M33,73.5c-12.9,0-22.16-2.31-27.54-6.86c-4.31-3.65-4.96-7.78-4.96-9.91V0.5h28.58L33,9.35l3.92-8.85H65.5v56.23
		C65.5,60.66,63.16,73.5,33,73.5z"/>
	<path fill="#FFFFFF" d="M65,1v55.73C65,60.44,62.92,73,33,73S1,60.44,1,56.73V1h27.75L33,10.59L37.25,1H65 M66,0h-1H37.25H36.6
		l-0.26,0.59L33,8.12l-3.33-7.52L29.4,0h-0.65H1H0v1v55.73c0,2.22,0.67,6.51,5.13,10.29C10.61,71.65,19.98,74,33,74
		s22.39-2.35,27.87-6.98C65.33,63.24,66,58.95,66,56.73V1V0L66,0z"/>
</g>
<path fill="#F1B82D" d="M42,51.82v-5.33c0-1.08-0.66-1.92-2-2.64V40l0,0h17v3.82c-1.34,0.72-2,1.56-2,2.64v4.76
	C54.83,54.96,56.06,64,33,64c-22.96,0-21.88-9.04-22-12.78v-4.76c0-1.08-0.66-1.92-2-2.64V40h17l0,0v3.85c-1.35,0.72-2,1.56-2,2.64
	v5.33c0.06,0.84-0.63,4.18,8.98,4.18S41.94,52.65,42,51.82z"/>
<path fill="#F1B82D" d="M32.98,23.57L40.9,9H57v4.04c-1.35,0.72-2,1.57-2,2.65V27c0,1.08,0.65,1.92,2,2.64V34H42v-4.39
	c1.34-0.72,2-1.56,2-2.64v-8.62L34.83,34h-3.7L22,18.35v8.62c0,1.08,0.65,1.92,2,2.64V34H9v-4.36c1.34-0.72,2-1.56,2-2.64V15.69
	c0-1.08-0.66-1.93-2-2.65V9h16.07L32.98,23.57"/>
<g>
</g>
<g>
</g>
<g>
</g>
<g>
</g>
<g>
</g>
<g>
</g>
<g>
</g>
<g>
</g>
<g>
</g>
<g>
</g>
<g>
</g>
<g>
</g>
<g>
</g>
<g>
</g>
<g>
</g>
</svg>
